X:210
T:Black Joke,The TS.210
M:6/8
L:1/8
Q:3/8=120
S:Thomas Sands’ MS,1810,Lincolnshire
R:jig
N:As above
O:England;Lincolnshire
Z:vmp.Ruairidh Greig, 2011
K:G
D2DG2G|ABA AGA|BcB BAG|ABA AGF|G2GE2E|DEFG2:|
|:c|Bcdd3|efgd2c|Bcdd3|efgd2c|B2gB2g|
ABA AGA|BcB BAG|ABA AGF|G2GE2E|DEFG2:|]

